source/svgs/bowtie/uE944-dashboard-fill.svg

<svg xmlns="http://www.w3.org/2000/svg" viewBox="0 0 448 448"><path d="M256 288h-256v-288h256v288zm32-160h160v-128h-160v128zm0 160h160v-128h-160v128zm-96 160h256v-128h-256v128zm-32-128h-160v128h160v-128z"/></svg>

<svg xmlns="http://www.w3.org/2000/svg" viewBox="0 0 448 448"><path d="M256 288H0V0h256v288zm32-160h160V0H288v128zm0 160h160V160H288v128zm-96 160h256V320H192v128zm-32-128H0v128h160V320z"/></svg>
